!!!COM: Anonymous
!!!OPR: Missa L'ardant desir
!!!ONM: 5
!!!OTL: Agnus Dei
!!!AGN: Mass; Agnus Dei
!!!SCT: Ano1025e
!!!SCA: Ano1025e
!!!SMS: Capella Sistina 51
!!!folio-OPR: 90v-104r
!!!folio:
!!!voices: 4
**kern	**text	**kern	**text	**kern	**text	**kern	**text
*staff4	*staff4	*staff3	*staff3	*staff2	*staff2	*staff1	*staff1
*Ivox	*	*Ivox	*	*Ivox	*	*Ivox	*
*I"Bassus	*	*I"Tenor	*	*I"Altus	*	*I"Discantus	*
*I'B	*	*I'T	*	*I'A	*	*I'D	*
*>[A,B,C]	*>[A,B,C]	*>[A,B,C]	*>[A,B,C]	*>[A,B,C]	*>[A,B,C]	*>[A,B,C]	*>[A,B,C]
*>A	*>A	*>A	*>A	*>A	*>A	*>A	*>A
*clefF4	*	*clefGv2	*	*clefGv2	*	*clefG2	*
*k[]	*	*k[]	*	*k[]	*	*k[]	*
*M3/1	*	*M3/1	*	*M3/1	*	*M3/1	*
*met(O)	*	*met(O)	*	*met(O)	*	*met(O)	*
*MM300	*	*MM300	*	*MM300	*	*MM300	*
!!section: Agnus dei I
!!!OMD: Agnus dei I
=1-	=1-	=1-	=1-	=1-	=1-	=1-	=1-
!	!	!LO:TX:X=-40:Z=16:t=T in twofold aug.; omits rests and any note followed by a higher note	!	!	!	!	!
0.D	A-	0d	A-	0A	A-	[0.a	A-
.	.	1f	-gnus	1d	.	.	.
=2	=2	=2	=2	=2	=2	=2	=2
1AA	.	1e	de-	2c	.	0.a]	.
.	.	.	.	4d	.	.	.
.	.	.	.	4e	.	.	.
1D	.	1d	.	1f	.	.	.
2C	-gnus	[1e	-i,	2e	.	.	.
[2AA	.	.	.	[2c	.	.	.
=3	=3	=3	=3	=3	=3	=3	=3
4AA]	.	1e]	.	2c]	.	0a	-gnus
4BB	.	.	.	.	.	.	.
2C	.	.	.	2A	.	.	.
2D	.	0d	qui	1.A	-gnus	.	.
2E	.	.	.	.	.	.	.
2F	.	.	.	.	.	1f	.
2G	.	.	.	2B	.	.	.
=4	=4	=4	=4	=4	=4	=4	=4
2.A	de-	0c	tol-	2c	de-	1e	.
.	.	.	.	2d	.	.	.
4G	.	.	.	.	.	.	.
2E	.	.	.	1e	.	1.g	de-
2F	.	.	.	.	.	.	.
1G	-i,	[1B-i	-lis	2d	.	.	.
.	.	.	.	[2g	.	2f	.
=5	=5	=5	=5	=5	=5	=5	=5
1r	.	0.B-_	.	2g]	.	1d	-i,
.	.	.	.	2f	.	.	.
[0G	qui	.	.	1d	-i,	1r	.
.	.	.	.	1d	qui	[1g	qui
=6	=6	=6	=6	=6	=6	=6	=6
0G]	.	0B-]	.	1.d	tol-	1g]	.
.	.	.	.	.	.	1g	tol-
.	.	.	.	2e	.	.	.
[1D	.	[1A	pec-	2d	.	2f	.
.	.	.	.	[2f	.	[2a	.
=7	=7	=7	=7	=7	=7	=7	=7
1D]	.	0.A_	.	2f]	.	2a]	.
.	.	.	.	2e	.	2g	.
1D	tol-	.	.	1d	.	1f	.
1AA	-lis	.	.	2c	-lis	2e	-lis
.	.	.	.	2e	pec-	[2a	pec-
=8	=8	=8	=8	=8	=8	=8	=8
1D	pec-	0A]	.	2f	-ca-	2a]	.
.	.	.	.	2.d	.	1f	.
1F	-ca-	.	.	.	.	.	.
.	.	.	.	4c	.	.	.
.	.	.	.	2A	.	2d	.
[1E	.	[1e	-ca-	2B	.	2e	.
.	.	.	.	[2G	.	[2c	.
=9	=9	=9	=9	=9	=9	=9	=9
1E]	.	0.e]	.	1G]	.	2c]	.
.	.	.	.	.	.	1c	-ca-
0AA	-ta,	.	.	2.A	.	.	.
.	.	.	.	.	.	2d	.
.	.	.	.	4G	.	.	.
.	.	.	.	1E	.	2c#i	.
.	.	.	.	.	.	2B	.
=10	=10	=10	=10	=10	=10	=10	=10
1r	.	[0.A	-ta	1D	-ta,	2.d	.
.	.	.	.	.	.	4e	.
1.D	pec-	.	.	2r	.	1.f	.
.	.	.	.	1d	pec-	.	.
2C	.	.	.	2e	.	2e	.
=11	=11	=11	=11	=11	=11	=11	=11
2D	.	0.A]	.	1.f	-ca-	1d	.
2E	.	.	.	.	.	.	.
1.F	-ca-	.	.	.	.	1.c	.
.	.	.	.	2c	.	.	.
.	.	.	.	[1f	.	.	.
2BB-	.	.	.	.	.	2B-	.
=12	=12	=12	=12	=12	=12	=12	=12
1BB-i	-ta	0d	mun-	2f]	.	1B-i	-ta
.	.	.	.	2B-	.	.	.
2r	.	.	.	1.B-i	-ta	1f	mun-
1.BB-i	mun-	.	.	.	.	.	.
.	.	[1B-i	.	.	.	2g	.
.	.	.	.	[2f	mun-	[2b-i	.
=13	=13	=13	=13	=13	=13	=13	=13
2D	.	1B-i]	.	2f]	.	2b-i]	.
2E	.	.	.	4e	.	2g	.
.	.	.	.	4d	.	.	.
1F	.	0A	-di,	2c	.	2f	.
.	.	.	.	2f	.	2.cc	.
2C	.	.	.	2e	.	.	.
.	.	.	.	.	.	4b-i	.
2F	.	.	.	2f	.	2a	.
=14	=14	=14	=14	=14	=14	=14	=14
4G	.	0G	mun-	2d	.	4b-i	.
4F	.	.	.	.	.	4a	.
4E	.	.	.	1.g	.	4g	.
4D	.	.	.	.	.	4f	.
1C	-di,	.	.	.	.	2.e	.
.	.	.	.	.	.	4d	.
2r	.	[1F	.	2c	.	1f	-di,
2F	mun-	.	.	[2d	.	.	.
=15	=15	=15	=15	=15	=15	=15	=15
2D	.	0.F_	.	4d]	.	1r	.
.	.	.	.	4e	.	.	.
2BB-i	.	.	.	1f	.	.	.
2F	.	.	.	.	.	2a	mun-
2G	.	.	.	2e	.	2b-i	.
1A	.	.	.	2c	.	1cc	.
.	.	.	.	[2f	.	.	.
=16	=16	=16	=16	=16	=16	=16	=16
0D	.	0F]	.	4f]	.	2b-i	.
.	.	.	.	4e	.	.	.
.	.	.	.	4d	.	1a	.
.	.	.	.	4c	.	.	.
.	.	.	.	1Bni	.	.	.
.	.	.	.	.	.	4g	.
.	.	.	.	.	.	4f	.
[1C	-di,	[1G	-di,	1c	-di,	[1e	-di,
=17	=17	=17	=17	=17	=17	=17	=17
0.C]	.	0.G_	.	2r	.	1e]	.
.	.	.	.	2.e	mun-	.	.
.	.	.	.	.	.	2c	mun-
.	.	.	.	4f	.	.	.
.	.	.	.	1g	.	2.e	.
.	.	.	.	.	.	4f	.
.	.	.	.	2e	.	[2g	.
=18	=18	=18	=18	=18	=18	=18	=18
1BB-i	mun-	0G]	mun-	2d	.	4g]	.
.	.	.	.	.	.	4f	.
.	.	.	.	2.g	.	2d	.
1C	.	.	.	.	.	4e	.
.	.	.	.	4f	.	4d	.
.	.	.	.	2e	.	4c	.
.	.	.	.	.	.	4B	.
[1D	.	[1F	.	2d	-di,	2A	.
.	.	.	.	2r	.	[2d	.
=19	=19	=19	=19	=19	=19	=19	=19
1D]	.	1F]	.	2A	mun-	2d]	.
.	.	.	.	2B-	.	2d	.
1.AA	.	[0E	-di,	2A	.	2c	.
.	.	.	.	1c	.	2.e	.
.	.	.	.	.	.	4f	.
[2GG	.	.	.	[2B-i	.	[2g	.
=20	=20	=20	=20	=20	=20	=20	=20
2GG]	.	0E]	.	4B-]	.	4g]	.
.	.	.	.	4A	.	4f	.
2AA	.	.	.	1A	.	4e	.
.	.	.	.	.	.	4d	.
1E	.	.	.	.	.	2.c#i	.
.	.	.	.	2G	.	.	.
.	.	.	.	.	.	4B	.
[1D	-di,	[1f	mi-	[1A	.	[1d	.
=21	=21	=21	=21	=21	=21	=21	=21
0.D_	.	0.f_	.	1A]	.	0.d]	.
.	.	.	.	1B-i	.	.	.
.	.	.	.	1A	.	.	.
=22	=22	=22	=22	=22	=22	=22	=22
1D]	.	0f]	.	1F	-di,	0A	.
1r	.	.	.	1D	.	.	.
1AA	mi-	[1e	-se-	2.E	mi-	1A	-di,
.	.	.	.	4F	.	.	.
=23	=23	=23	=23	=23	=23	=23	=23
2GG	-se-	0.e_	.	2G	.	1r	.
2.AA	-re-	.	.	2C	-se-	.	.
.	.	.	.	2.E	-re-	1A	mi-
4BB	.	.	.	.	.	.	.
2C	.	.	.	.	.	.	.
.	.	.	.	4C	.	.	.
2AA	.	.	.	2.E	.	2A	-se-
[2C	.	.	.	.	.	2G	.
.	.	.	.	4F	.	.	.
=24	=24	=24	=24	=24	=24	=24	=24
4C]	.	0.e_	.	2.G	.	2.c	-re-
4D	.	.	.	.	.	.	.
2E	.	.	.	.	.	.	.
.	.	.	.	4E	.	4d	.
2C	.	.	.	2A	.	2e	.
2.E	.	.	.	2G	.	2c	.
.	.	.	.	2c	.	1g	.
4F	.	.	.	.	.	.	.
2G	.	.	.	2B	.	.	.
=25	=25	=25	=25	=25	=25	=25	=25
2A	-re	0.e_	.	2A	-re	1c	-re
2E	.	.	.	1G	.	.	.
2r	.	.	.	.	.	2g	no-
2A	no-	.	.	2c	no-	2a	.
2G	.	.	.	2B	.	2b	.
[2A	.	.	.	2A	.	[2cc	.
=26	=26	=26	=26	=26	=26	=26	=26
2A]	.	0e]	.	2c	.	2cc]	.
2B	.	.	.	2d	.	2b	.
1c	.	.	.	2e	.	1a	.
.	.	.	.	2f	.	.	.
[1G	.	[1d	-re-	[1g	.	[1b	.
=27	=27	=27	=27	=27	=27	=27	=27
0.G]	.	0.d]	.	2g]	.	1b]	.
.	.	.	.	4f	.	.	.
.	.	.	.	4e	.	.	.
.	.	.	.	2.d	.	0g	.
.	.	.	.	4c	.	.	.
.	.	.	.	1B	.	.	.
=28	=28	=28	=28	=28	=28	=28	=28
0D	.	0d	-re	1A	-bis,	0a	.
.	.	.	.	[0d	mi-	.	.
[1G	-bis,	[1B	no-	.	.	1g	-bis,
=29	=29	=29	=29	=29	=29	=29	=29
1G]	.	1B]	.	1d]	.	2r	.
.	.	.	.	.	.	1g	mi-
0C	mi-	0e	.	0c	.	.	.
.	.	.	.	.	.	2a	.
.	.	.	.	.	.	2g	.
.	.	.	.	.	.	2e	.
=30	=30	=30	=30	=30	=30	=30	=30
0D	.	0d	.	0A	.	2.f	.
.	.	.	.	.	.	4g	.
.	.	.	.	.	.	1.a	.
1AA	-se-	[1e	-bis,	[1c	-se-	.	.
.	.	.	.	.	.	[2a	-se-
=31	=31	=31	=31	=31	=31	=31	=31
1C	-re-	1e]	.	1c]	.	2a]	.
.	.	.	.	.	.	2g	.
0D	.	0f	no-	1B	-re-	2f	-re-
.	.	.	.	.	.	2e	.
.	.	.	.	[1A	.	1d	.
=32	=32	=32	=32	=32	=32	=32	=32
[0.AA	-re	[0.e	.	0A]	.	0.c	-re
.	.	.	.	[1E	-re	.	.
=33	=33	=33	=33	=33	=33	=33	=33
0AA]	.	0.e]	.	1E]	.	1c	no-
.	.	.	.	0A	no-	2d	.
.	.	.	.	.	.	1c#i	.
1AA	no-	.	.	.	.	.	.
.	.	.	.	.	.	2B	.
=34	=34	=34	=34	=34	=34	=34	=34
1BB	.	[0.d	-bis,	1.D	.	1.d	.
0GG	.	.	.	.	.	.	.
.	.	.	.	1.G	.	2c	.
.	.	.	.	.	.	1B	.
=35	=35	=35	=35	=35	=35	=35	=35
[0.D	-bis,	0.d]	.	2F	-bis,	1A	-bis,
.	.	.	.	2G	.	.	.
.	.	.	.	1A	.	2r	.
.	.	.	.	.	.	1a	no-
.	.	.	.	2r	.	.	.
.	.	.	.	[2d	no-	[2f	.
=36	=36	=36	=36	=36	=36	=36	=36
1D]	.	0A	no-	4d]	.	4f]	.
.	.	.	.	4e	.	4g	.
!	!	!	!	!	!	!LO:TX:Z=16:t=MS&colon; 2 minims	!
.	.	.	.	2.f	.	2.a	.
1AA	no-	.	.	.	.	.	.
.	.	.	.	4e	.	4g	.
.	.	.	.	2.c	.	2.e	.
1C	.	[1G	.	.	.	.	.
.	.	.	.	4d	.	4f	.
.	.	.	.	[2e	.	[2g	.
=37	=37	=37	=37	=37	=37	=37	=37
1GG	.	1G]	.	4e]	.	4g]	.
.	.	.	.	4d	.	4f	.
.	.	.	.	2B	.	1d	.
0AA	.	0E	.	2c	.	.	.
.	.	.	.	2.A	.	4c#i	.
.	.	.	.	.	.	4B	.
.	.	.	.	.	.	2.c#i	.
.	.	.	.	4G	.	.	.
.	.	.	.	2E	.	.	.
.	.	.	.	.	.	4B	.
=38	=38	=38	=38	=38	=38	=38	=38
[0.Dl	-bis.	[0.Dl	-bis.	2F	.	[0.dl	-bis.
.	.	.	.	2G	.	.	.
.	.	.	.	1.B-i	.	.	.
.	.	.	.	2A	.	.	.
=39	=39	=39	=39	=39	=39	=39	=39
0.D]	.	0.D]	.	0.Al	-bis.	0.d]	.
!!LO:LB:i:g=z
=40||	=40||	=40||	=40||	=40||	=40||	=40||	=40||
*>B	*>B	*>B	*>B	*>B	*>B	*>B	*>B
*clefF4	*	*clefGv2	*	*clefGv2	*	*clefG2	*
*k[]	*	*k[]	*	*k[]	*	*k[]	*
*M2/1	*	*M2/1	*	*M2/1	*	*M2/1	*
*met(O2)	*	*met(O2)	*	*met(O2)	*	*met(O2)	*
*MM400	*	*MM400	*	*MM400	*	*MM400	*
!!section: Agnus dei II
!!!OMD: Agnus dei II
!	!	!LO:TX:X=-40:Z=8:t=T reads upside-down, ing stems	!	!	!	!	!
[0D	A-	0r	.	[0d	A-	0a	A-
=41.	=41.	=41.	=41.	=41.	=41.	=41.	=41.
0D]	.	0r	.	1d]	.	1.a	-gnus
.	.	.	.	[1A	-gnus	.	.
.	.	.	.	.	.	4g	.
.	.	.	.	.	.	4f	.
=42.	=42.	=42.	=42.	=42.	=42.	=42.	=42.
0C	-gnus	0r	.	2A]	.	2.e	.
.	.	.	.	2G	.	.	.
.	.	.	.	.	.	4d	.
.	.	.	.	1E	.	1e	.
=43	=43	=43	=43	=43	=43	=43	=43
1.D	de-	0r	.	1D	de-	1A	de-
.	.	.	.	1F	.	[1d	.
2C	.	.	.	.	.	.	.
=44.	=44.	=44.	=44.	=44.	=44.	=44.	=44.
1BB	.	0r	.	1G	.	1d]	.
1AA	.	.	.	1A	.	1c	.
=45.	=45.	=45.	=45.	=45.	=45.	=45.	=45.
0GG	.	0r	.	1D	.	0B	.
.	.	.	.	1E	.	.	.
=46	=46	=46	=46	=46	=46	=46	=46
[0D	.	[0A	A-	[0F	.	1A	.
.	.	.	.	.	.	[1f	.
=47.	=47.	=47.	=47.	=47.	=47.	=47.	=47.
0D]	.	0A_	.	0F]	.	2f]	.
.	.	.	.	.	.	2e	.
.	.	.	.	.	.	[1d	.
=48.	=48.	=48.	=48.	=48.	=48.	=48.	=48.
0AA	-i,	0A]	.	0E	.	1d]	.
.	.	.	.	.	.	1c#i	.
=49	=49	=49	=49	=49	=49	=49	=49
1r	.	[0F	-gnus	0D	-i,	0d	-i,
[1D	qui	.	.	.	.	.	.
=50.	=50.	=50.	=50.	=50.	=50.	=50.	=50.
2D]	.	0F]	.	0r	.	0a	qui
2AA	.	.	.	.	.	.	.
1D	.	.	.	.	.	.	.
=51.	=51.	=51.	=51.	=51.	=51.	=51.	=51.
1E	tol-	0E	de-	1.G	qui	1g	tol-
1C	.	.	.	.	.	1e	.
.	.	.	.	2A	.	.	.
=52	=52	=52	=52	=52	=52	=52	=52
1D	.	0F	-i,	1B	.	2d	.
.	.	.	.	.	.	1f	.
[1AA	.	.	.	2A	.	.	.
.	.	.	.	[2A	tol-	2e	.
=53.	=53.	=53.	=53.	=53.	=53.	=53.	=53.
0AA]	.	1E	qui	2A]	.	2.c	.
.	.	.	.	4G	.	.	.
.	.	.	.	4F	.	4d	.
.	.	1C	.	1E	.	2e	.
.	.	.	.	.	.	[2A	.
=54.	=54.	=54.	=54.	=54.	=54.	=54.	=54.
1BB	.	1D	tol-	1D	.	2A]	.
.	.	.	.	.	.	2G	.
[1AA	.	1E	.	[1C	.	2A	.
.	.	.	.	.	.	[2c	.
=55	=55	=55	=55	=55	=55	=55	=55
1AA]	.	[0A	.	1C]	.	4c]	.
.	.	.	.	.	.	4d	.
.	.	.	.	.	.	2e	.
1D	.	.	.	1D	.	2d	.
.	.	.	.	.	.	2f	.
=56.	=56.	=56.	=56.	=56.	=56.	=56.	=56.
1C	.	0A_	.	1E	.	2e	.
.	.	.	.	.	.	1g	.
1D	.	.	.	2F	.	.	.
.	.	.	.	4E	.	2f	.
.	.	.	.	4D	.	.	.
=57.	=57.	=57.	=57.	=57.	=57.	=57.	=57.
0AA	.	0A]	.	2C	.	2e	.
.	.	.	.	2D	.	1d	.
.	.	.	.	1E	.	.	.
.	.	.	.	.	.	2c#i	.
=58	=58	=58	=58	=58	=58	=58	=58
0A	-lis,	[0F	-lis,	1D	-lis,	0d	-lis,
.	.	.	.	[1d	qui	.	.
=59.	=59.	=59.	=59.	=59.	=59.	=59.	=59.
1D	qui	0F]	.	2d]	.	0r	.
.	.	.	.	2A	.	.	.
1A	.	.	.	1d	.	.	.
=60.	=60.	=60.	=60.	=60.	=60.	=60.	=60.
1G	.	1E	qui	1c	.	1r	.
1B	.	[1D	.	1d	.	[1d	qui
=61	=61	=61	=61	=61	=61	=61	=61
1A	.	1D]	.	1f	.	1d]	.
[1G	tol-	[1E	tol-	[1e	tol-	1B	.
=62.	=62.	=62.	=62.	=62.	=62.	=62.	=62.
1G]	.	1E]	.	2e]	.	1c	.
.	.	.	.	2d	.	.	.
1F	.	1F	.	1d	.	1d	.
=63.	=63.	=63.	=63.	=63.	=63.	=63.	=63.
0E	.	0G	.	1c	.	[0e	.
.	.	.	.	1B	.	.	.
=64	=64	=64	=64	=64	=64	=64	=64
[0AA	-lis	0A	.	[0c	-lis,	1e]	.
.	.	.	.	.	.	[1e	tol-
=65.	=65.	=65.	=65.	=65.	=65.	=65.	=65.
0AA_	.	[0e	.	0c]	.	1e]	.
.	.	.	.	.	.	1A	.
=66.	=66.	=66.	=66.	=66.	=66.	=66.	=66.
0AA_	.	0e]	.	[0c	qui	[0A	.
=67	=67	=67	=67	=67	=67	=67	=67
0AA_	.	[0E	.	1c]	.	0A]	.
.	.	.	.	[1e	tol-	.	.
=68.	=68.	=68.	=68.	=68.	=68.	=68.	=68.
0AA_	.	0E_	.	2e]	.	[0e	.
.	.	.	.	2d	.	.	.
.	.	.	.	2c#i	.	.	.
.	.	.	.	2B	.	.	.
=69.	=69.	=69.	=69.	=69.	=69.	=69.	=69.
0AA]	.	0E]	.	0c#i	.	0e]	.
=70	=70	=70	=70	=70	=70	=70	=70
[0A	pec-	0D	-lis,	1d	-lis	1.f	-lis
.	.	.	.	1B	pec-	.	.
.	.	.	.	.	.	2d	.
=71.	=71.	=71.	=71.	=71.	=71.	=71.	=71.
0A]	.	[0A	pec-	1.c	-ca-	1e	.
.	.	.	.	.	.	1e	pec-
.	.	.	.	2d	.	.	.
=72.	=72.	=72.	=72.	=72.	=72.	=72.	=72.
[0c	-ca-	0A]	.	0e	.	[0a	-ca-
=73	=73	=73	=73	=73	=73	=73	=73
0c_	.	[0A	-ca-	[0e	-ta	1a]	.
.	.	.	.	.	.	[1cc	.
=74.	=74.	=74.	=74.	=74.	=74.	=74.	=74.
0c_	.	0A_	.	0e]	.	1cc]	.
.	.	.	.	.	.	1b	-ta
=75.	=75.	=75.	=75.	=75.	=75.	=75.	=75.
0c]	.	0A]	.	0f	mun-	0a	mun-
=76	=76	=76	=76	=76	=76	=76	=76
[0B	-ta,	[0E	-ta,	[0e	-di,	0g	-di,
=77.	=77.	=77.	=77.	=77.	=77.	=77.	=77.
0B]	.	0E]	.	0e_	.	1r	.
.	.	.	.	.	.	1g	pec-
=78.	=78.	=78.	=78.	=78.	=78.	=78.	=78.
0r	.	1A	pec-	0e]	.	1a	.
.	.	[1G	.	.	.	1b	.
=79	=79	=79	=79	=79	=79	=79	=79
0r	.	1G]	.	1d	pec-	1g	.
.	.	[1A	-ca-	1f	.	[1cc	-ca-
=80.	=80.	=80.	=80.	=80.	=80.	=80.	=80.
0r	.	1A]	.	1e	-ca-	1cc]	.
.	.	1B	.	1d	.	1b	.
=81.	=81.	=81.	=81.	=81.	=81.	=81.	=81.
0r	.	0c	.	0A	-ta,	1a	.
.	.	.	.	.	.	2g	.
.	.	.	.	.	.	2f	.
=82	=82	=82	=82	=82	=82	=82	=82
[0A	pec-	[0c	-ta	1r	.	0e	-ta
.	.	.	.	[1e	pec-	.	.
=83.	=83.	=83.	=83.	=83.	=83.	=83.	=83.
0A]	.	0c_	.	0e_	.	[0a	.
=84.	=84.	=84.	=84.	=84.	=84.	=84.	=84.
0A	-ca-	0c]	.	1e]	.	0a]	.
.	.	.	.	[1e	-ca-	.	.
=85	=85	=85	=85	=85	=85	=85	=85
1.E	-ta	[0B	mun-	2e]	.	1.g	mun-
.	.	.	.	2B	-ta	.	.
.	.	.	.	2c	.	.	.
2D	mun-	.	.	2d	.	2f	.
=86.	=86.	=86.	=86.	=86.	=86.	=86.	=86.
2E	.	0B_	.	2.G	mun-	2e	.
2.BB	.	.	.	.	.	2d	.
.	.	.	.	4F	.	.	.
.	.	.	.	2E	.	2g	.
4C	.	.	.	.	.	.	.
2D	.	.	.	2D	.	2f	.
=87.	=87.	=87.	=87.	=87.	=87.	=87.	=87.
2GG	.	0B]	.	2G	.	1.d	.
2D	.	.	.	2F	.	.	.
2BB	.	.	.	2D	.	.	.
2E	.	.	.	2G	.	[2e	.
=88	=88	=88	=88	=88	=88	=88	=88
2C	.	0c	.	2E	.	2e]	.
2F	.	.	.	2A	.	2c	.
2E	.	.	.	2G	.	2e	.
2A	.	.	.	2c	.	2f	.
=89.	=89.	=89.	=89.	=89.	=89.	=89.	=89.
2G	.	0d	.	2B	.	2g	.
2F	.	.	.	2A	.	2a	.
1B-i	.	.	.	1G	-di,	2b-i	.
.	.	.	.	.	.	2g	.
=90.	=90.	=90.	=90.	=90.	=90.	=90.	=90.
1A	-di,	0e	-di,	2.c	mun-	1.cc	.
.	.	.	.	4d	.	.	.
[1c	pec-	.	.	4e	.	.	.
.	.	.	.	4f	.	.	.
.	.	.	.	[2g	.	2bni	.
=91	=91	=91	=91	=91	=91	=91	=91
2c]	.	0r	.	4g]	.	2g	.
.	.	.	.	4f	.	.	.
2c	-ca-	.	.	2e	.	2a	.
1G	-ta	.	.	2d	.	4b	.
.	.	.	.	.	.	4a	.
.	.	.	.	2B	.	4g	.
.	.	.	.	.	.	4f	.
=92.	=92.	=92.	=92.	=92.	=92.	=92.	=92.
2.A	mun-	0r	.	1c	-di,	1e	-di,
4G	.	.	.	.	.	.	.
1E	-di,	.	.	2B	mun-	2r	.
.	.	.	.	[2e	.	[2g	mun-
=93.	=93.	=93.	=93.	=93.	=93.	=93.	=93.
1r	.	0r	.	4e]	.	4g]	.
.	.	.	.	4d	.	4f	.
.	.	.	.	2.g	.	2e	.
1G	mun-	.	.	.	.	2d	.
.	.	.	.	4f	.	.	.
.	.	.	.	2e	.	2g	.
=94	=94	=94	=94	=94	=94	=94	=94
1D	.	0r	.	2d	.	2f	.
.	.	.	.	2.f	.	2.d	.
1F	.	.	.	.	.	.	.
.	.	.	.	4e	.	4c	.
.	.	.	.	2d	.	2f	.
=95.	=95.	=95.	=95.	=95.	=95.	=95.	=95.
1C	.	0r	.	2c	.	2e	.
.	.	.	.	2.e	.	2.c	.
2.E	.	.	.	.	.	.	.
.	.	.	.	4d	.	4B	.
.	.	.	.	2c	.	2e	.
4D	.	.	.	.	.	.	.
=96.	=96.	=96.	=96.	=96.	=96.	=96.	=96.
1BB	.	0r	.	2B	.	2d	.
.	.	.	.	2.d	.	2.B	.
1D	.	.	.	.	.	.	.
.	.	.	.	4c	.	4A	.
.	.	.	.	[2A	.	2d	.
=97	=97	=97	=97	=97	=97	=97	=97
1AA	.	0r	.	4A]	.	2c	.
.	.	.	.	4G	.	.	.
.	.	.	.	2F	.	2.A	.
2C	.	.	.	2E	.	.	.
.	.	.	.	.	.	4G	.
2D	.	.	.	2F	.	2B	.
=98.	=98.	=98.	=98.	=98.	=98.	=98.	=98.
2E	.	0r	.	2G	.	2c	.
2F	.	.	.	2.A	.	2.d	.
2.D	.	.	.	.	.	.	.
.	.	.	.	4G	.	4c	.
.	.	.	.	4F	.	4B	.
4C	.	.	.	4E	.	4A	.
=99.	=99.	=99.	=99.	=99.	=99.	=99.	=99.
2D	.	0r	.	2F	.	2B	.
2AA	.	.	.	2E	.	1A	.
2BB	.	.	.	2.D	.	.	.
2C	.	.	.	.	.	2G#i	.
.	.	.	.	4C	.	.	.
=100	=100	=100	=100	=100	=100	=100	=100
0AA	-di,	0C	mi-	1.E	-di,	1A	-di,
.	.	.	.	.	.	1r	.
.	.	.	.	2F	mun-	.	.
=101.	=101.	=101.	=101.	=101.	=101.	=101.	=101.
0BB	mi-	0D	.	2G	.	0d	mi-
.	.	.	.	2A	.	.	.
.	.	.	.	2G#i	.	.	.
.	.	.	.	4F#i	.	.	.
.	.	.	.	4G#i	.	.	.
=102.	=102.	=102.	=102.	=102.	=102.	=102.	=102.
0AA	-se-	0E	-se-	1.A	.	1c	-se-
.	.	.	.	.	.	[1e	-re-
.	.	.	.	4G	.	.	.
.	.	.	.	4A	.	.	.
=103	=103	=103	=103	=103	=103	=103	=103
0C	-re-	1E	-re-	2.G	.	1e]	.
.	.	.	.	4F	.	.	.
.	.	[1G	-re	2E	.	1e	-re
.	.	.	.	2C	.	.	.
=104.	=104.	=104.	=104.	=104.	=104.	=104.	=104.
1BB	-re	1G]	.	2D	.	1d	no-
.	.	.	.	4C	.	.	.
.	.	.	.	4D	.	.	.
2.AA	no-	[1A	no-	2E	.	2c	.
.	.	.	.	2F	.	2d	.
4BB	.	.	.	.	.	.	.
=105.	=105.	=105.	=105.	=105.	=105.	=105.	=105.
2C	.	1A]	.	2E	.	2e	.
2D	.	.	.	2F	.	1d	.
1BB	.	1D	.	2G	.	.	.
.	.	.	.	4F	.	2B	.
.	.	.	.	4G	.	.	.
=106	=106	=106	=106	=106	=106	=106	=106
1AA	-bis,	1E	.	[0A	-di,	2c	.
.	.	.	.	.	.	2e	.
1r	.	[1F	.	.	.	2d	.
.	.	.	.	.	.	[2f	.
=107.	=107.	=107.	=107.	=107.	=107.	=107.	=107.
[0D	mi-	0F_	.	0A]	.	2f]	.
.	.	.	.	.	.	2e	.
.	.	.	.	.	.	2d	.
.	.	.	.	.	.	4c	.
.	.	.	.	.	.	4B	.
=108.	=108.	=108.	=108.	=108.	=108.	=108.	=108.
0D]	.	0F_	.	0r	.	2A	.
.	.	.	.	.	.	1d	.
.	.	.	.	.	.	4c	.
.	.	.	.	.	.	4B	.
=109	=109	=109	=109	=109	=109	=109	=109
[0AA	-se-	1F]	-bis,	0A	mi-	2c	.
.	.	.	.	.	.	2d	.
.	.	[1E	.	.	.	1e	.
=110.	=110.	=110.	=110.	=110.	=110.	=110.	=110.
0AA]	.	0E_	.	0c	.	1.A	.
.	.	.	.	.	.	2B	.
=111.	=111.	=111.	=111.	=111.	=111.	=111.	=111.
1AA	-re-	1E]	.	1A	.	1c	.
1BB	-re	[1D	no-	1F	.	1d	.
=112	=112	=112	=112	=112	=112	=112	=112
0GG	no-	1D]	.	1.G	.	0B	-bis,
.	.	[1E	.	.	.	.	.
.	.	.	.	4A	.	.	.
.	.	.	.	4B	.	.	.
=113.	=113.	=113.	=113.	=113.	=113.	=113.	=113.
0AA	.	1E]	.	1c	.	1A	.
.	.	1C	.	[1A	.	1r	.
=114.	=114.	=114.	=114.	=114.	=114.	=114.	=114.
0BB	.	0D	.	2A]	.	0d	mi-
.	.	.	.	4G	.	.	.
.	.	.	.	4F	.	.	.
.	.	.	.	4G	.	.	.
.	.	.	.	4F	.	.	.
.	.	.	.	4E	.	.	.
.	.	.	.	4D	.	.	.
=115	=115	=115	=115	=115	=115	=115	=115
[0AA	-bis,	[0A	-bis,	1.C	.	1e	.
.	.	.	.	.	.	1f	-se-
.	.	.	.	2D	-se-	.	.
=116.	=116.	=116.	=116.	=116.	=116.	=116.	=116.
0AA_	.	0A_	.	1E	-re-	1e	-re-
.	.	.	.	1F	.	[1a	.
=117.	=117.	=117.	=117.	=117.	=117.	=117.	=117.
0AA]	.	0A]	.	1E	.	2a]	.
.	.	.	.	.	.	2g	.
.	.	.	.	[1A	-re	[1e	-re
=118	=118	=118	=118	=118	=118	=118	=118
1.AA	no-	[0E	no-	2A]	.	1e]	.
.	.	.	.	2B	.	.	.
.	.	.	.	[1c	no-	[1A	no-
2BB	.	.	.	.	.	.	.
=119.	=119.	=119.	=119.	=119.	=119.	=119.	=119.
2C	.	0E]	.	2c]	.	2A]	.
2D	.	.	.	2B	.	2B	.
1E	.	.	.	1G	.	1c	.
=120.	=120.	=120.	=120.	=120.	=120.	=120.	=120.
1F	.	1A	-bis,	1A	.	1d	.
[1G	.	1B	.	[1E	-bis,	2.e	.
.	.	.	.	.	.	4d	.
=121	=121	=121	=121	=121	=121	=121	=121
2G]	.	[0e	no-	1E]	.	1B	.
2F	.	.	.	.	.	.	.
[1A	.	.	.	1c	no-	2A	.
.	.	.	.	.	.	2B	.
=122.	=122.	=122.	=122.	=122.	=122.	=122.	=122.
1A]	.	0e_	.	1A	.	2.c	.
.	.	.	.	.	.	4d	.
1G	.	.	.	1B	.	1B	.
=123.	=123.	=123.	=123.	=123.	=123.	=123.	=123.
0A	-bis,	0e]	.	0c	-bis,	1A	-bis,
.	.	.	.	.	.	[1a	no-
=124	=124	=124	=124	=124	=124	=124	=124
[0D	no-	[0d	.	0A	no-	0a_	.
=125.	=125.	=125.	=125.	=125.	=125.	=125.	=125.
0D_	.	0d_	.	1.F	.	0a_	.
.	.	.	.	2G	.	.	.
=126.	=126.	=126.	=126.	=126.	=126.	=126.	=126.
0D]	.	0d]	.	1A	.	1a]	.
.	.	.	.	1B-i	.	1g	.
=127	=127	=127	=127	=127	=127	=127	=127
[0AAl	-bis.	[0el	-bis.	[0Al	-bis.	1f	.
.	.	.	.	.	.	2e	.
.	.	.	.	.	.	2d	.
=128.	=128.	=128.	=128.	=128.	=128.	=128.	=128.
0AA]	.	0e]	.	0A]	.	0cl	-bis.
!!LO:LB:i:g=z
=129||	=129||	=129||	=129||	=129||	=129||	=129||	=129||
*>C	*>C	*>C	*>C	*>C	*>C	*>C	*>C
*clefF4	*	*clefGv2	*	*clefGv2	*	*clefG2	*
*k[]	*	*k[]	*	*k[]	*	*k[]	*
*M2/1	*	*M2/1	*	*M2/1	*	*M2/1	*
*met(C|)	*	*met(C|)	*	*met(C|)	*	*met(C|)	*
*MM400	*	*MM400	*	*MM400	*	*MM400	*
!	!	!LO:TX:X=-40:Z=16:t=T replaces each note value by its opposite (e.g., minims become maximas)	!	!	!	!	!
!!section: Agnus dei III
!!!OMD: Agnus dei III
[0D	A-	0r	.	[0F	A-	[0d	A-
=130	=130	=130	=130	=130	=130	=130	=130
0D_	.	[0A	A-	0F_	.	0d]	.
=131	=131	=131	=131	=131	=131	=131	=131
0D]	.	0A]	.	0F]	.	0f	.
=132	=132	=132	=132	=132	=132	=132	=132
[0AA	-gnus	[0c	-gnus	0A	-gnus	0e	-gnus
=133	=133	=133	=133	=133	=133	=133	=133
0AA]	.	0c]	.	0E	.	[0A	.
=134	=134	=134	=134	=134	=134	=134	=134
[0D	de-	[0d	de-	1.F	de-	1A]	.
.	.	.	.	.	.	[1f	de-
.	.	.	.	2G	.	.	.
=135	=135	=135	=135	=135	=135	=135	=135
1D]	.	0d]	.	1A	.	1f]	.
[1F	.	.	.	1D	.	[1a	.
=136	=136	=136	=136	=136	=136	=136	=136
1F]	.	[0c	i,	1.A	.	1a]	.
1G	.	.	.	.	.	2g	.
.	.	.	.	2B	.	2f	.
=137	=137	=137	=137	=137	=137	=137	=137
0A	.	0c]	.	2c	.	1e	.
.	.	.	.	2d	.	.	.
.	.	.	.	1e	.	[1a	.
=138	=138	=138	=138	=138	=138	=138	=138
1F	.	[0d	de-	1f	.	1a]	.
[1G	.	.	.	[1B-	.	1g	.
=139	=139	=139	=139	=139	=139	=139	=139
1G]	.	0d_	.	2B-]	.	1b-i	.
.	.	.	.	2G	.	.	.
1F	.	.	.	[1A	.	1a	.
=140	=140	=140	=140	=140	=140	=140	=140
[0D	-i,	0d_	.	2A]	.	1.f	.
.	.	.	.	2B-i	.	.	.
.	.	.	.	2A	.	.	.
.	.	.	.	2G	.	2g	.
=141	=141	=141	=141	=141	=141	=141	=141
0D]	.	0d]	.	2F	.	[0a	.
.	.	.	.	2G	.	.	.
.	.	.	.	1A	.	.	.
=142	=142	=142	=142	=142	=142	=142	=142
0r	.	[0f	-i,	0D	-i,	1a]	.
.	.	.	.	.	.	1d	.
=143	=143	=143	=143	=143	=143	=143	=143
0r	.	0f_	.	[0B-i	de-	[0d	-i,
=144	=144	=144	=144	=144	=144	=144	=144
[0D	qui	0f_	.	1B-]	.	0d_	.
.	.	.	.	[1A	.	.	.
=145	=145	=145	=145	=145	=145	=145	=145
0D]	.	0f]	.	0A]	.	0d]	.
=146	=146	=146	=146	=146	=146	=146	=146
[0E	.	[0e	qui	[0G	-i,	1B	de-
.	.	.	.	.	.	1c	.
=147	=147	=147	=147	=147	=147	=147	=147
0E]	.	0e_	.	0G]	.	1B	-i,
!	!	!	!	!	!	!LO:TX:Z=8:t=MS&colon; a	!
.	.	.	.	.	.	1G	.
=148	=148	=148	=148	=148	=148	=148	=148
[0C	.	0e_	.	[0c	qui	1r	.
.	.	.	.	.	.	[1g	qui
=149	=149	=149	=149	=149	=149	=149	=149
0C]	.	0e]	.	0c]	.	2g]	.
.	.	.	.	.	.	2a	.
.	.	.	.	.	.	2g	.
.	.	.	.	.	.	2e	.
=150	=150	=150	=150	=150	=150	=150	=150
0D	tol-	[0d	tol-	0A	tol-	1f	tol-
.	.	.	.	.	.	1a	.
=151	=151	=151	=151	=151	=151	=151	=151
[0GG	.	0d_	.	0B-i	.	1g	.
.	.	.	.	.	.	[1b-i	.
=152	=152	=152	=152	=152	=152	=152	=152
0GG]	.	0d_	.	0G	.	2b-]	.
.	.	.	.	.	.	4a	.
.	.	.	.	.	.	4g	.
.	.	.	.	.	.	1b-i	.
=153	=153	=153	=153	=153	=153	=153	=153
[0D	.	0d]	.	1.A	.	1a	.
.	.	.	.	.	.	[1d	.
.	.	.	.	2G	.	.	.
=154	=154	=154	=154	=154	=154	=154	=154
0D]	.	[0A	-bis,	2F	.	1d]	.
.	.	.	.	2E	.	.	.
.	.	.	.	1D	.	[1f	.
=155	=155	=155	=155	=155	=155	=155	=155
[0AA	-lis,	0A]	.	1.C	.	2f]	.
.	.	.	.	.	.	2e	.
.	.	.	.	.	.	[1e	.
.	.	.	.	2D	.	.	.
=156	=156	=156	=156	=156	=156	=156	=156
0AA_	.	[0c	qui	1E	.	2e]	.
.	.	.	.	.	.	2A	.
.	.	.	.	1F	.	1A	-lis,
=157	=157	=157	=157	=157	=157	=157	=157
0AA]	.	0c]	.	0E	.	1r	.
.	.	.	.	.	.	1e	qui
=158	=158	=158	=158	=158	=158	=158	=158
0A	qui	[0d	tol-	0D	-lis,	2f	tol-
.	.	.	.	.	.	2g	.
.	.	.	.	.	.	[1a	.
=159	=159	=159	=159	=159	=159	=159	=159
0B-i	tol-	0d]	.	0G	qui	2a]	.
.	.	.	.	.	.	4g	.
.	.	.	.	.	.	4f	.
.	.	.	.	.	.	2.g	.
.	.	.	.	.	.	4f	.
=160	=160	=160	=160	=160	=160	=160	=160
[0A	-lis	[0e	-lis	[0c	tol-	[0a	-lis
=161	=161	=161	=161	=161	=161	=161	=161
0A]	.	0e]	.	1c]	.	0a]	.
.	.	.	.	1A	.	.	.
=162	=162	=162	=162	=162	=162	=162	=162
[0D	pec-	[0d	pec-	0A	-lis	1.f	pec-
.	.	.	.	.	.	2g	.
=163	=163	=163	=163	=163	=163	=163	=163
0D]	.	0d]	.	0F	pec-	1a	.
.	.	.	.	.	.	[1a	-ca-
=164	=164	=164	=164	=164	=164	=164	=164
0E	-ca-	[0c	.	0G	-ca-	1a]	.
.	.	.	.	.	.	1g	.
=165	=165	=165	=165	=165	=165	=165	=165
0F	-ta	0c]	.	0A	-ta,	1f	.
.	.	.	.	.	.	1e	.
=166	=166	=166	=166	=166	=166	=166	=166
1.G	mun-	0B-i	-ca-	0r	.	0d	-ta,
2F	.	.	.	.	.	.	.
=167	=167	=167	=167	=167	=167	=167	=167
0D	-di,	0A	.	[0F	pec-	1r	.
.	.	.	.	.	.	[1a	pec-
=168	=168	=168	=168	=168	=168	=168	=168
1r	.	0D	-ta,	0F]	.	1a]	.
1A	pec-	.	.	.	.	1a	-ca-
=169	=169	=169	=169	=169	=169	=169	=169
1G	-ca-	[0d	pec-	1G	-ca-	1b-i	.
1A	.	.	.	1F	.	[1a	.
=170	=170	=170	=170	=170	=170	=170	=170
0B-i	.	0d]	.	0G	.	2a]	.
.	.	.	.	.	.	1g	.
.	.	.	.	.	.	4f	.
.	.	.	.	.	.	4g	.
=171	=171	=171	=171	=171	=171	=171	=171
0A	-ta	[0e	-ca-	[0c	-ta	[0a	-ta
=172	=172	=172	=172	=172	=172	=172	=172
1.A	mun-	0e]	.	0c_	.	1a]	.
.	.	.	.	.	.	[1a	mun-
2G	.	.	.	.	.	.	.
=173	=173	=173	=173	=173	=173	=173	=173
2F	.	0A	.	0c]	.	2a]	.
2G	.	.	.	.	.	2g	.
1A	.	.	.	.	.	1e	.
=174	=174	=174	=174	=174	=174	=174	=174
1D	.	[0A	-ta	1d	mun-	1f	.
2C	.	.	.	2e	.	2e	.
[2D	.	.	.	[2f	.	2d	.
=175	=175	=175	=175	=175	=175	=175	=175
2D]	.	0A]	.	2f]	.	2f	.
2E	.	.	.	2e	.	2g	.
1F	.	.	.	2d	.	1a	.
.	.	.	.	2c	.	.	.
=176	=176	=176	=176	=176	=176	=176	=176
1G	-di,	[0d	mun-	1B-i	-di,	1g	-di,
2D	mun-	.	.	[1B-i	mun-	[1b-i	mun-
[2G	.	.	.	.	.	.	.
=177	=177	=177	=177	=177	=177	=177	=177
2G]	.	0d]	.	1B-]	.	2b-]	.
2F	.	.	.	.	.	2a	.
1D	.	.	.	1f	.	[1a	.
=178	=178	=178	=178	=178	=178	=178	=178
2C	.	[0A	.	2e	.	1a]	.
1D	.	.	.	1d	.	.	.
.	.	.	.	.	.	1d	.
[2F	.	.	.	4c	.	.	.
.	.	.	.	4Bni	.	.	.
=179	=179	=179	=179	=179	=179	=179	=179
2F]	.	0A]	.	2A	.	1f	.
4E	.	.	.	2B	.	.	.
4D	.	.	.	.	.	.	.
1C	.	.	.	1c	.	1e	.
=180	=180	=180	=180	=180	=180	=180	=180
1BB-	-di,	[0B-i	-di,	1F	.	[0d	-di,
2GG	mun-	.	.	1G	.	.	.
[2BB-i	.	.	.	.	.	.	.
=181	=181	=181	=181	=181	=181	=181	=181
2BB-]	.	0B-]	.	1F	-di,	0d]	.
2C	.	.	.	.	.	.	.
2D	.	.	.	[1f	mun-	.	.
2E	.	.	.	.	.	.	.
=182	=182	=182	=182	=182	=182	=182	=182
1F	.	[0A	mun-	1f]	.	0c	mun-
2C	.	.	.	2e	.	.	.
[2F	.	.	.	2c	.	.	.
=183	=183	=183	=183	=183	=183	=183	=183
!	!	!	!	!	!	!LO:TX:Z=8:t=MS&colon; e'	!
2F]	.	0A]	.	2d	.	0f	.
2G	.	.	.	2e	.	.	.
1A	.	.	.	2.f	.	.	.
.	.	.	.	4g	.	.	.
=184	=184	=184	=184	=184	=184	=184	=184
1B	.	[0G	.	1e	.	0g	-di,
2c	.	.	.	2f	.	.	.
[2d	.	.	.	[2g	.	.	.
=185	=185	=185	=185	=185	=185	=185	=185
4d]	.	0G]	.	2g]	.	1r	.
4c	.	.	.	.	.	.	.
4B	.	.	.	2f	.	.	.
4A	.	.	.	.	.	.	.
2c	.	.	.	2d	.	1g	mun-
2B	.	.	.	2e	.	.	.
=186	=186	=186	=186	=186	=186	=186	=186
1c	.	0F	-di,	1f	-di,	2a	.
.	.	.	.	.	.	2b	.
1A	.	.	.	1F	mun-	[1cc	.
=187	=187	=187	=187	=187	=187	=187	=187
1F	.	0F	mun-	1A	.	2cc]	.
.	.	.	.	.	.	2f	.
1D	.	.	.	1B	.	[1f	.
=188	=188	=188	=188	=188	=188	=188	=188
0C	.	0G	.	0c	.	2f]	.
.	.	.	.	.	.	4e	.
.	.	.	.	.	.	4d	.
.	.	.	.	.	.	1e	.
=189	=189	=189	=189	=189	=189	=189	=189
[0D	-di,	[0F	.	1.A	.	1.d	.
.	.	.	.	[2d	.	4c	.
.	.	.	.	.	.	4B	.
=190	=190	=190	=190	=190	=190	=190	=190
0D]	.	0F]	.	2d]	.	1A	-di,
.	.	.	.	2c	.	.	.
.	.	.	.	2A	.	1d	mun-
.	.	.	.	2B	.	.	.
=191	=191	=191	=191	=191	=191	=191	=191
[0AA	.	[0E	.	2c	.	1e	.
.	.	.	.	2d	.	.	.
.	.	.	.	2e	.	[1c	.
.	.	.	.	[2A	.	.	.
=192	=192	=192	=192	=192	=192	=192	=192
0AA]	.	0E]	.	2A]	.	2c]	.
.	.	.	.	2d	.	2d	.
.	.	.	.	2c#i	.	1e	.
.	.	.	.	2B	.	.	.
=193	=193	=193	=193	=193	=193	=193	=193
1.F	mun-	0D	-di,	[0d	-di,	2A	.
.	.	.	.	.	.	1a	.
4G	.	.	.	.	.	4g	.
4A	.	.	.	.	.	4f	.
=194	=194	=194	=194	=194	=194	=194	=194
4B-i	.	0r	.	1d]	.	4g	.
4A	.	.	.	.	.	4f	.
4G	.	.	.	.	.	4e	.
4F	.	.	.	.	.	4d	.
1E	.	.	.	1e	mun-	2.c#i	.
.	.	.	.	.	.	4B	.
=195	=195	=195	=195	=195	=195	=195	=195
[0D	-di,	1r	.	1f	.	1d	-di,
.	.	[1f	do-	1d	.	1r	.
=196	=196	=196	=196	=196	=196	=196	=196
1D]	.	1f]	.	0A	.	[0a	do-
1r	.	1e	.	.	.	.	.
=197	=197	=197	=197	=197	=197	=197	=197
[0F	do-	0d	.	[0D	-di,	0a_	.
=198	=198	=198	=198	=198	=198	=198	=198
0F]	.	[0d	-na	0D]	.	0a]	.
=199	=199	=199	=199	=199	=199	=199	=199
[0G	-na	0d]	.	1.B-i	do-	[0g	.
.	.	.	.	2c	.	.	.
=200	=200	=200	=200	=200	=200	=200	=200
0G_	.	[0B-i	no-	[0d	-na	1g]	.
.	.	.	.	.	.	1d	-na
=201	=201	=201	=201	=201	=201	=201	=201
0G]	.	0B-]	.	1d]	.	0g	no-
.	.	.	.	[1d	no-	.	.
=202	=202	=202	=202	=202	=202	=202	=202
[0D	no-	[0A	-bis	0d_	.	0f	-bis
=203	=203	=203	=203	=203	=203	=203	=203
1D]	.	0A]	.	1d]	.	[0a	pa-
[1A	-bis	.	.	1e	.	.	.
=204	=204	=204	=204	=204	=204	=204	=204
0A_	.	[0e	pa-	[0c	-bis	1a]	.
.	.	.	.	.	.	[1cc	.
=205	=205	=205	=205	=205	=205	=205	=205
1A]	.	0e]	.	1c]	.	1cc]	.
[1G	pa-	.	.	[1g	pa-	1b	.
=206	=206	=206	=206	=206	=206	=206	=206
0G_	.	[0d	.	2g]	.	[0g	.
.	.	.	.	4f	.	.	.
.	.	.	.	4e	.	.	.
.	.	.	.	2d	.	.	.
.	.	.	.	2c	.	.	.
=207	=207	=207	=207	=207	=207	=207	=207
1G]	.	0d]	.	1B	.	1g]	.
[1F	.	.	.	2A	.	[1a	.
.	.	.	.	[2A	.	.	.
=208	=208	=208	=208	=208	=208	=208	=208
1F]	.	[0c	.	2A]	.	1a]	.
.	.	.	.	4G	.	.	.
.	.	.	.	4F	.	.	.
1G	.	.	.	1E	-cem,	2g	.
.	.	.	.	.	.	2e	.
=209	=209	=209	=209	=209	=209	=209	=209
0A	-cem,	0c]	.	1r	.	2f	.
.	.	.	.	.	.	2g	.
.	.	.	.	[1A	do-	1e	.
=210	=210	=210	=210	=210	=210	=210	=210
1.D	pa-	[0d	-cem,	0A]	.	0d	-cem,
2E	.	.	.	.	.	.	.
=211	=211	=211	=211	=211	=211	=211	=211
1F	.	0d]	.	1D	.	0r	.
[1G	.	.	.	[1B-	.	.	.
=212	=212	=212	=212	=212	=212	=212	=212
2G]	.	[0e	do-	0B-]	.	0g	do-
2F	.	.	.	.	.	.	.
2E	.	.	.	.	.	.	.
2D	.	.	.	.	.	.	.
=213	=213	=213	=213	=213	=213	=213	=213
1C	-cem,	0e]	.	0c	-na	1.g	-na
2r	.	.	.	.	.	.	.
2C	no-	.	.	.	.	4f	.
.	.	.	.	.	.	4e	.
=214	=214	=214	=214	=214	=214	=214	=214
2D	.	[0d	-na	1.A	no-	2f	no-
2E	.	.	.	.	.	2g	.
2F	.	.	.	.	.	2a	.
[2G	.	.	.	2G	.	[2b-i	.
=215	=215	=215	=215	=215	=215	=215	=215
2G]	.	0d]	.	2B-i	.	2b-]	.
2A	.	.	.	2c	.	2a	.
2B-i	.	.	.	1d	-bis	2g	.
2c	.	.	.	.	.	[2a	-bis
=216	=216	=216	=216	=216	=216	=216	=216
1d	-bis	[0f	no-	2.D	pa-	2a]	.
.	.	.	.	.	.	2.A	pa-
.	.	.	.	4E	.	.	.
2D	pa-	.	.	2F	.	.	.
.	.	.	.	.	.	4B	.
2E	.	.	.	2G	.	2c	.
=217	=217	=217	=217	=217	=217	=217	=217
2F	.	0f]	.	2A	.	2d	.
2G	.	.	.	2B	.	2e	.
2A	.	.	.	2c	.	2f	.
2B	.	.	.	2d	.	2g	.
=218	=218	=218	=218	=218	=218	=218	=218
1c	.	0e	.	2.A	.	2a	.
.	.	.	.	.	.	1cc	.
.	.	.	.	4B	.	.	.
2A	.	.	.	2c	.	.	.
2B	.	.	.	2d	.	2b	.
=219	=219	=219	=219	=219	=219	=219	=219
2c	.	0A	-bis	2.e	.	2a	.
2d	.	.	.	.	.	4g	.
.	.	.	.	4d	.	4f	.
2e	.	.	.	2c	.	2e	.
2c	.	.	.	2A	.	[2a	.
=220	=220	=220	=220	=220	=220	=220	=220
1d	.	0d	do-	1B-i	.	2a]	.
.	.	.	.	.	.	2g	.
[1D	.	.	.	1A	-cem,	2f	.
.	.	.	.	.	.	[2a	.
=221	=221	=221	=221	=221	=221	=221	=221
2D]	.	[0A	-na	1r	.	4a]	.
.	.	.	.	.	.	4g	.
2C	.	.	.	.	.	2e	.
!	!	!	!	!LO:TX:Z=12:t=MS&colon; b a	!	!	!
1D	.	.	.	1d	do-	2d	.
.	.	.	.	.	.	[2f	.
=222	=222	=222	=222	=222	=222	=222	=222
1.AA	.	0A]	.	1c	-na	2f]	.
.	.	.	.	.	.	2e	.
.	.	.	.	[1e	no-	2c	.
2BB	.	.	.	.	.	2d	.
=223	=223	=223	=223	=223	=223	=223	=223
1C	-cem,	[0G	no-	2e]	.	1.e	.
.	.	.	.	1g	.	.	.
[1C	pa-	.	.	.	.	.	.
.	.	.	.	2f	.	2d	.
=224	=224	=224	=224	=224	=224	=224	=224
2C]	.	0G]	.	1e	.	1c	.
2D	.	.	.	.	.	.	.
1E	.	.	.	1e	-bis	1B	.
=225	=225	=225	=225	=225	=225	=225	=225
0F	.	[0D	-bis	1d	.	1A	-cem,
.	.	.	.	1A	pa-	[1f	pa-
=226	=226	=226	=226	=226	=226	=226	=226
0BB-	.	0D]	.	2B-i	.	2f]	.
.	.	.	.	2A	.	2e	.
.	.	.	.	2F	.	1d	.
.	.	.	.	2G	.	.	.
=227	=227	=227	=227	=227	=227	=227	=227
1AA	.	[0E	pa-	1A	.	1c	.
1GG	.	.	.	1B-i	.	2d	.
.	.	.	.	.	.	[2e	.
=228	=228	=228	=228	=228	=228	=228	=228
0AA	.	0E]	.	0A	-cem,	2e]	.
.	.	.	.	.	.	2d	.
.	.	.	.	.	.	2B	.
.	.	.	.	.	.	2c#i	.
=229	=229	=229	=229	=229	=229	=229	=229
[0Dl	-cem.	[0Dl	-cem.	0F	pa-	[0dl	-cem.
=230	=230	=230	=230	=230	=230	=230	=230
0D_	.	0D_	.	0B-i	.	0d_	.
=231	=231	=231	=231	=231	=231	=231	=231
0D]	.	0D]	.	0Al	-cem.	0d]	.
==	==	==	==	==	==	==	==
*-	*-	*-	*-	*-	*-	*-	*-
!!!RDF**kern: l=long note in original notation
!!!RDF**kern: i=editorial accidental
!!!ENC: Jesse Rodin & Emily Zazulia
!!!END: 2019/01/10/
!!!EED: Jesse Rodin & Emily Zazulia
!!!EEV: 2019/01/12/
!!!ONB: Translated from MusicXML and edited on 2019/01/12/ by Craig Sapp
!!muse2ps: T^@{OPR}^u^@{ONM}{. }@{OTL}^C^@{SMS}, @{folio-OPR}\nEd. @{EED}^v90,90,90,130i2c110z18l2650
